X:1
T:Title
%%score ( 1 2 ) { 3 | 4 }
L:1/8
Q:1/4=140
M:6/4
K:F
V:1 treble nm="Grand Piano, Soprano"
V:2 treble 
V:3 bass nm="Choir Pad, Bass"
V:4 bass 
V:1
 [FA]2 [F_A]2 [F=A]2 F2 [FG]2 [FA]2 | [FB]6 [FA]6 | [Ec]2 [EG]2 [_E^F]2 [=EG]2 [EA]2 [EB]2 | %3
w: By~Ira~Allan~Sankey * * * * *|||
 [FA]12 | [FA]2 [F_A]2 [F=A]2 [CF]2 [CG]2 [FA]2 | [FB]6 [F=B]6 | %6
w: |||
 [Fd]2 [Fc]2 [FA]2 [EG]2 [EB]2 [EA]2 | F12 | z6 c6- | c12 | z6 A6- | A12 | %12
w: ||||||
 [Ec]2 [F=B]2 [G_B]2 D2 [CE]2 [CG]2 | [CF]6 [^CA]6 | [DG]2 [DB]2 [Dd]2 D2 [CE]2 [CG]2 | [CF]12 |] %16
w: ||||
V:2
 x12 | x12 | x12 | x12 | x12 | x12 | x12 | x12 | c2 c2 c2 z6 | F2 E2 G2 .F6 | A2 A2 A2 z6 | %11
 D2 ^C2 E2 .D6 | x12 | x12 | x12 | x12 |] %16
V:3
 C2 =B,2 C2 A,2 _B,2[K:treble] C2 | D6 C6 | B,2 B,2 A,2 B,2 C2 D2 | C12 | %4
 C2[K:bass] =B,2 C2 A,2 _B,2 C2 | B,6 _A,6 | A,2 A,2[K:treble] C2 B,2 D2 E2 | A,12 | C2 C2 C2 C6 | %9
 A,2 G,2 B,2 .A,6 | A,2 A,2 A,2 A,6 | F,2 E,2 F,2 .F,6 | G,2 G,2 C2 B,2 G,2 E,2 | F,6 F,6 | %14
 F,2 G,2 B,2 B,2 B,2 B,2 | A,12 |] %16
V:4
 F,2 F,2 F,2 F,2 F,2 F,2 | F,6 F,6 | C,2 C,2 C,2 C,2 C,2 C,2 | F,12 | F,2 F,2 F,2 _E,2 E,2 E,2 | %5
 D,6 ^C,6 | C,2 C,2 C,2 C,2 C,2 C,2 | F,12 | z12 | C,2 C,2 C,2 .[F,,F,]6 | z12 | %11
 z2 A,,2 A,,2 .D,6 | C,2 D,2 E,2 C,2 B,,2 B,,2 | A,,6 A,,6 | B,,2 B,,2 [G,,G,]2 C,2 C,2 E,2 | %15
 F,12 |] %16

